X:416
T:Les Fleurs Fran\ccaises
C:John Ritchie
L:1/8
M:4/4
S:Colin Hume's website,  colinhume.com  - chords can also be printed below the stave.
Q:1/4=110
K:D
P:A
|: "A7"A2 | "D"D>D F>G "/"A>A A<d | "Bm"D>D F>A "A7"E2- E3/F/4E/4 | "D"D>D F>G "/"A>F d2 | "Bm"(3fed "A7"(3ABc "D"d2 :|
P:B
|: "A7"e2 | "D"f>e d>a "A7"e>d (3cBA | "Bm"f>e (3dfa "A7"e2- e>e | "D"(3fed "A7/C#"(3edc "Bm"(3dcB "A7"A2 | "G"B<d "A7"c>e "D"d2 :|

